X: 8106
T: Contentment Is Wealth
R: jig
M: 6/8
K: Edorian
G/G/FG Eed|BAB EFG|F/F/EF DdB|AFD Def|
gfe edB|BAB dcd|B/c/dB DFA|1 GEE E2 F:|2 GEE EGA||
|:BGE EGA|~B3 EFG|AFD DFG|~A3 DFA|
BGE EGA|Bed ~B3|BAG FGA|1 GEE EGA:|GEE E2 F||
|:GBe GBe|GEE EFG|FAd FAd|FDD DEF|
GFE ede|BAB dcd|BAG FGA|GEE E2 F:|

